**harm	**harte	**kern	**silbe	**kern	**silbe	**rhyme	**timestamp	**phrase	**leadinstrument
*M4/4	*M4/4	*ICvox	*	*ICvox	*	*	*	*	*
*	*	*VRlead	*	*VRharmonize	*	*	*	*	*
*	*	*Hstimme	*	*Nstimme	*	*	*	*	*
*f:	*f:	*f:	*	*f:	*	*	*f:	*f:	*f:
*	*	*M4/4	*	*M4/4	*	*	*	*	*
*	*	*clefF4	*	*clefF4	*	*	*	*	*
1r;	N	r;	.	r;	.	.	0	.	r
=1	=1	=1	=1	=1	=1	=1	=1	=1	=1
*>Letter>A	*>Letter>A	*>Letter>A	*>Letter>A	*>Letter>A	*>Letter>A	*>Letter>A	*>Letter>A	*>Letter>A	*>Letter>A
*>Label>Intro	*>Label>Intro	*>Label>Intro	*>Label>Intro	*>Label>Intro	*>Label>Intro	*>Label>Intro	*>Label>Intro	*>Label>Intro	*>Label>Intro
1i7	F:min7	1r	.	1r	.	.	0.418	newline	guitar
=2	=2	=2	=2	=2	=2	=2	=2	=2	=2
2i7f	F:min7/4	1r	.	1r	.	.	2.243	.	guitar
4i7b	F:min7/b3	.	.	.	.	.	3.155	.	guitar
4i7e	F:min7/2	.	.	.	.	.	3.611	.	guitar
=3	=3	=3	=3	=3	=3	=3	=3	=3	=3
1i7	F:min7	1r	.	1r	.	.	4.067	.	guitar
=4	=4	=4	=4	=4	=4	=4	=4	=4	=4
2i7f	F:min7/4	2r	.	1r	.	.	5.892	.	guitar
4i7b	F:min7/b3	8r	.	.	.	.	6.804	.	guitar
.	.	4F	Girl	.	.	.	.	.	.
4i7e	F:min7/2	.	.	.	.	.	7.261	.	guitar
.	.	8E-	you	.	.	.	.	.	.
=5	=5	=5	=5	=5	=5	=5	=5	=5	=5
*>Letter>B	*>Letter>B	*>Letter>B	*>Letter>B	*>Letter>B	*>Letter>B	*>Letter>B	*>Letter>B	*>Letter>B	*>Letter>B
*>Label>Verse	*>Label>Verse	*>Label>Verse	*>Label>Verse	*>Label>Verse	*>Label>Verse	*>Label>Verse	*>Label>Verse	*>Label>Verse	*>Label>Verse
1i7	F:min7	8F	thought	1r	.	.	7.717	newline	voice
.	.	8F	you	.	.	.	.	.	.
.	.	8F	found	.	.	.	.	.	.
.	.	8F	the	.	.	.	.	.	.
.	.	8F	an-	.	.	.	.	.	.
.	.	8F	-swer	.	.	.	.	.	.
.	.	8F	on	.	.	.	.	.	.
.	.	8F	that	.	.	.	.	.	.
=6	=6	=6	=6	=6	=6	=6	=6	=6	=6
2i7f	F:min7/4	8F	mag-	1r	.	.	9.526	.	voice
.	.	8F	-ic	.	.	.	.	.	.
.	.	8F	car-	.	.	.	.	.	.
.	.	8F	-pet	.	.	.	.	.	.
4i7b	F:min7/b3	8F	ride	.	.	.	10.43	.	voice
.	.	4A-	last	.	.	.	.	.	.
4i7e	F:min7/2	.	.	.	.	.	10.882	.	voice
.	.	[8c	night	.	.	A	.	.	.
=7	=7	=7	=7	=7	=7	=7	=7	=7	=7
1i7	F:min7	2c]	_	1r	.	.	11.335	.	voice
.	.	2r	.	.	.	.	.	.	.
=8	=8	=8	=8	=8	=8	=8	=8	=8	=8
2i7f	F:min7/4	2r	.	1r	.	.	13.144	.	voice
4i7b	F:min7/b3	8r	.	.	.	.	14.048	.	voice
.	.	8c	But	.	.	.	.	.	.
4i7e	F:min7/2	8e-	when	.	.	.	14.5	.	voice
.	.	8c	you	.	.	.	.	.	.
=9	=9	=9	=9	=9	=9	=9	=9	=9	=9
1i7	F:min7	8e-	wake	1r	.	.	14.953	newline	voice
.	.	8f	up	.	.	.	.	.	.
.	.	8r	.	.	.	.	.	.	.
.	.	16f	in	.	.	.	.	.	.
.	.	16f	the	.	.	.	.	.	.
.	.	8f	mor-	.	.	.	.	.	.
.	.	8e-	_	.	.	.	.	.	.
.	.	16e-	-nin'	.	.	.	.	.	.
.	.	16e-	the	.	.	.	.	.	.
.	.	[8f	world	.	.	.	.	.	.
=10	=10	=10	=10	=10	=10	=10	=10	=10	=10
2i7f	F:min7/4	4.f]	_	1r	.	.	16.782	.	voice
.	.	8e-	still	.	.	.	.	.	.
4i7b	F:min7/b3	8c	gets	.	.	.	17.697	.	voice
.	.	8B-	you	.	.	.	.	.	.
4i7e	F:min7/2	8A-	up-	.	.	.	18.154	.	voice
.	.	[8c	-tight	.	.	A	.	.	.
=11	=11	=11	=11	=11	=11	=11	=11	=11	=11
1i7	F:min7	2c]	_	1r	.	.	18.611	.	voice
.	.	2r	.	.	.	.	.	.	.
=12	=12	=12	=12	=12	=12	=12	=12	=12	=12
2i7f	F:min7/4	2r	.	1r	.	.	20.441	.	voice
4i7b	F:min7/b3	8r	.	.	.	.	21.356	.	voice
.	.	4c	Well	.	.	.	.	.	.
4i7e	F:min7/2	.	.	.	.	.	21.813	.	voice
.	.	8A-	there's	.	.	.	.	.	.
=13	=13	=13	=13	=13	=13	=13	=13	=13	=13
1-VI	D-:maj	8B-	noth-	1r	.	.	22.27	newline	voice
.	.	8A-	-in'	.	.	.	.	.	.
.	.	8B-	that	.	.	.	.	.	.
.	.	8A-	uh	.	.	.	.	.	.
.	.	8B-	you	.	.	.	.	.	.
.	.	4A-	ain't	.	.	.	.	.	.
.	.	[8B-	tried	.	.	A	.	.	.
=14	=14	=14	=14	=14	=14	=14	=14	=14	=14
1-VI	D-:maj	4B-]	_	1r	.	.	24.074	.	voice
.	.	4r	.	.	.	.	.	.	.
.	.	4.r	.	.	.	.	.	.	.
.	.	8A-	To	.	.	.	.	.	.
=15	=15	=15	=15	=15	=15	=15	=15	=15	=15
1i	F:min	8c	fill	1r	.	.	25.878	.	voice
.	.	8A-	the	.	.	.	.	.	.
.	.	8A-	em-	.	.	.	.	.	.
.	.	8A-	-pti-	.	.	.	.	.	.
.	.	8A-	-ness	.	.	.	.	.	.
.	.	4B-	in	.	.	.	.	.	.
.	.	8F	side	.	.	A	.	.	.
=16	=16	=16	=16	=16	=16	=16	=16	=16	=16
2i	F:minmaj7	4A-	_	1r	.	.	27.681	.	voice
.	.	4r	.	.	.	.	.	.	.
2i7	F:min7	4r	.	.	.	.	28.583	.	voice
.	.	8c	When	.	.	.	.	.	.
.	.	8A-	you	.	.	.	.	.	.
=17	=17	=17	=17	=17	=17	=17	=17	=17	=17
1-VI	D-:maj	8B-	come	1r	.	.	29.485	newline	voice
.	.	4c	back	.	.	.	.	.	.
.	.	8B-	down	.	.	.	.	.	.
.	.	8A-	_	.	.	.	.	.	.
.	.	4A-	girl	.	.	.	.	.	.
.	.	8r	.	.	.	.	.	.	.
=18	=18	=18	=18	=18	=18	=18	=18	=18	=18
1-VI	D-:maj	8c	Still	1r	.	.	31.284	.	voice
.	.	4c	ain't	.	.	.	.	.	.
.	.	8r	.	.	.	.	.	.	.
.	.	8B-	feel-	.	.	.	.	.	.
.	.	4A-	-in'	.	.	.	.	.	.
.	.	[8c	right	.	.	A	.	.	.
=19	=19	=19	=19	=19	=19	=19	=19	=19	=19
1V7	C:7	2.c]	_	1r	.	.	33.082	.	voice
.	.	4r	.	.	.	.	.	.	.
=20	=20	=20	=20	=20	=20	=20	=20	=20	=20
1V7	C:7	8r	.	1r	.	.	34.88	.	voice
.	.	8F	And	.	.	.	.	.	.
.	.	8c	don't	.	.	.	.	.	.
.	.	8B-	it	.	.	.	.	.	.
.	.	4c	seem	.	.	.	.	.	.
.	.	4c	like	.	.	A	.	.	.
=21	=21	=21	=21	=21	=21	=21	=21	=21	=21
*>Letter>C	*>Letter>C	*>Letter>C	*>Letter>C	*>Letter>C	*>Letter>C	*>Letter>C	*>Letter>C	*>Letter>C	*>Letter>C
*>Label>Chorus	*>Label>Chorus	*>Label>Chorus	*>Label>Chorus	*>Label>Chorus	*>Label>Chorus	*>Label>Chorus	*>Label>Chorus	*>Label>Chorus	*>Label>Chorus
1-III	A-:maj	4c	Kicks	4c	Kicks	.	36.679	newline	voice
.	.	4c	just	4c	just	.	.	.	.
.	.	4c	keep	4c	keep	.	.	.	.
.	.	8c	get-	8c	get-	.	.	.	.
.	.	8A-	-tin'	8A-	-tin'	.	.	.	.
=22	=22	=22	=22	=22	=22	=22	=22	=22	=22
1-VI	D-:maj	8B-	har-	8B-	har-	.	38.489	.	voice
.	.	8A-	-der	8A-	-der	.	.	.	.
.	.	8A-	to	8A-	to	.	.	.	.
.	.	8c	find	8c	find	A	.	.	.
.	.	8r	.	8r	.	.	.	.	.
.	.	8A-	and	8A-	and	.	.	.	.
.	.	8B-	all	8B-	all	.	.	.	.
.	.	8A-	your	8A-	your	.	.	.	.
=23	=23	=23	=23	=23	=23	=23	=23	=23	=23
1-III	A-:maj	4c	kicks	4c	kicks	.	40.299	.	voice
.	.	4c	ain't	4c	ain't	.	.	.	.
.	.	4c	bring-	4c	bring-	.	.	.	.
.	.	4c	-in'	4c	-in'	.	.	.	.
=24	=24	=24	=24	=24	=24	=24	=24	=24	=24
1-VI	D-:maj	8B-	you	8B-	you	.	42.11	.	voice
.	.	8A-	piece	8A-	piece	.	.	.	.
.	.	8A-	of	8A-	of	.	.	.	.
.	.	8c	mind	8c	mind	A	.	.	.
.	.	8r	.	8r	.	.	.	.	.
.	.	8A-	Be-	8A-	Be-	.	.	.	.
.	.	8B-	-fore	8B-	-fore	.	.	.	.
.	.	8A-	you	8A-	you	.	.	.	.
=25	=25	=25	=25	=25	=25	=25	=25	=25	=25
1-III	A-:maj	4c	find	4c	find	A	43.92	newline	voice
.	.	4c	out	4c	out	.	.	.	.
.	.	8c	it's	8c	it's	.	.	.	.
.	.	4c	too	4c	too	.	.	.	.
.	.	8c	late	8c	late	B	.	.	.
=26	=26	=26	=26	=26	=26	=26	=26	=26	=26
1-III	A-:maj	8r	.	8r	.	.	45.738	.	voice
.	.	4c	girl	4c	girl	.	.	.	.
.	.	8c	you	8c	you	.	.	.	.
.	.	8c	be-	8c	be-	.	.	.	.
.	.	8B-	-tter	8B-	-tter	.	.	.	.
.	.	4A-	get	4A-	get	.	.	.	.
=27	=27	=27	=27	=27	=27	=27	=27	=27	=27
1V7	C:7	[1c	straight	[1c	straight	B	47.556	.	voice
=28	=28	=28	=28	=28	=28	=28	=28	=28	=28
1V7	C:7	8c]	_	1c]	_	.	49.374	.	voice
.	.	4c	No	.	.	.	.	.	.
.	.	8A-	but	.	.	.	.	.	.
.	.	4B-	not	.	.	.	.	.	.
.	.	4A-	with	.	.	.	.	.	.
=29	=29	=29	=29	=29	=29	=29	=29	=29	=29
*>Letter>A	*>Letter>A	*>Letter>A	*>Letter>A	*>Letter>A	*>Letter>A	*>Letter>A	*>Letter>A	*>Letter>A	*>Letter>A
*>Label>Trans	*>Label>Trans	*>Label>Trans	*>Label>Trans	*>Label>Trans	*>Label>Trans	*>Label>Trans	*>Label>Trans	*>Label>Trans	*>Label>Trans
1i7	F:min7	2F	kicks	1r	.	.	51.192	newline	guitar
.	.	2r	.	.	.	.	.	.	.
=30	=30	=30	=30	=30	=30	=30	=30	=30	=30
2i7f	F:min7/4	4.r	.	1r	.	.	53.018	.	guitar
.	.	8F	You	.	.	.	.	.	.
4i7b	F:min7/b3	4F	just	.	.	.	53.932	.	guitar
4i7e	F:min7/2	8A-	need	.	.	.	54.388	.	guitar
.	.	8r	.	.	.	.	.	.	.
=31	=31	=31	=31	=31	=31	=31	=31	=31	=31
1i7	F:min7	8c	help	1r	.	.	54.845	.	guitar
.	.	4.F	girl	.	.	.	.	.	.
.	.	2r	.	.	.	.	.	.	.
=32	=32	=32	=32	=32	=32	=32	=32	=32	=32
2i7f	F:min7/4	2r	.	1r	.	.	56.672	.	guitar
4i7b	F:min7/b3	8r	.	.	.	.	57.585	.	guitar
.	.	4F	Well	.	.	.	.	.	.
4i7e	F:min7/2	.	.	.	.	.	58.042	.	guitar
.	.	8E-	you	.	.	.	.	.	.
=33	=33	=33	=33	=33	=33	=33	=33	=33	=33
*>Letter>B	*>Letter>B	*>Letter>B	*>Letter>B	*>Letter>B	*>Letter>B	*>Letter>B	*>Letter>B	*>Letter>B	*>Letter>B
*>Label>Verse	*>Label>Verse	*>Label>Verse	*>Label>Verse	*>Label>Verse	*>Label>Verse	*>Label>Verse	*>Label>Verse	*>Label>Verse	*>Label>Verse
1i7	F:min7	8F	think	1r	.	.	58.498	newline	voice
.	.	8F	you're	.	.	.	.	.	.
.	.	16F	gon-	.	.	.	.	.	.
.	.	16F	-na	.	.	.	.	.	.
.	.	4F	find	.	.	.	.	.	.
.	.	8F	your-	.	.	.	.	.	.
.	.	8F	-self	.	.	.	.	.	.
.	.	8F	a	.	.	.	.	.	.
=34	=34	=34	=34	=34	=34	=34	=34	=34	=34
2i7f	F:min7/4	8F	lit-	1r	.	.	60.318	.	voice
.	.	8F	-tle	.	.	.	.	.	.
.	.	8F	piece	.	.	.	.	.	.
.	.	8F	of	.	.	.	.	.	.
4i7b	F:min7/b3	8F	par-	.	.	.	61.228	.	voice
.	.	4A-	-a-	.	.	.	.	.	.
4i7e	F:min7/2	.	.	.	.	.	61.682	.	voice
.	.	[8c	-dise	.	.	A	.	.	.
=35	=35	=35	=35	=35	=35	=35	=35	=35	=35
1i7	F:min7	2c]	_	1r	.	.	62.137	.	voice
.	.	2r	.	.	.	.	.	.	.
=36	=36	=36	=36	=36	=36	=36	=36	=36	=36
2i7f	F:min7/4	2.r	.	1r	.	.	63.957	.	voice
4i7b	F:min7/b3	.	.	.	.	.	64.866	.	voice
4i7e	F:min7/2	16c	But	.	.	.	65.321	.	voice
.	.	16c	it	.	.	.	.	.	.
.	.	[8e-	ain't	.	.	.	.	.	.
=37	=37	=37	=37	=37	=37	=37	=37	=37	=37
1i7	F:min7	8e-]	_	1r	.	.	65.776	newline	voice
.	.	4f	hap-	.	.	.	.	.	.
.	.	8e-	-pened	.	.	.	.	.	.
.	.	8f	yet	.	.	.	.	.	.
.	.	4r	.	.	.	.	.	.	.
.	.	8e-	so	.	.	.	.	.	.
=38	=38	=38	=38	=38	=38	=38	=38	=38	=38
2i7f	F:min7/4	4.f	girl	1r	.	.	67.598	.	voice
.	.	8e-	you	.	.	.	.	.	.
4i7b	F:min7/b3	16B-	be-	.	.	.	68.509	.	voice
.	.	8.B-	-tter	.	.	.	.	.	.
4i7e	F:min7/2	4A-	think	.	.	.	68.965	.	voice
=39	=39	=39	=39	=39	=39	=39	=39	=39	=39
1i7	F:min7	2c	twice	1r	.	A	69.42	.	voice
.	.	2r	.	.	.	.	.	.	.
=40	=40	=40	=40	=40	=40	=40	=40	=40	=40
2i7f	F:min7/4	2r	.	1r	.	.	71.243	.	voice
4i7b	F:min7/b3	4r	.	.	.	.	72.154	.	voice
4i7e	F:min7/2	8c	Don't	.	.	.	72.609	.	voice
.	.	8A-	you	.	.	.	.	.	.
=41	=41	=41	=41	=41	=41	=41	=41	=41	=41
1-VI	D-:maj	8B-	see	1r	.	.	73.065	newline	voice
.	.	8A-	no	.	.	.	.	.	.
.	.	8B-	mat-	.	.	.	.	.	.
.	.	8A-	-ter	.	.	.	.	.	.
.	.	6r	.	.	.	.	.	.	.
.	.	6B-	what	.	.	.	.	.	.
.	.	6A-	you	.	.	.	.	.	.
=42	=42	=42	=42	=42	=42	=42	=42	=42	=42
1-VI	D-:maj	8B	do	1r	.	C	74.868	.	voice
.	.	8c	_	.	.	.	.	.	.
.	.	4r	.	.	.	.	.	.	.
.	.	4r	.	.	.	.	.	.	.
.	.	8r	.	.	.	.	.	.	.
.	.	8A-	You'll	.	.	.	.	.	.
=43	=43	=43	=43	=43	=43	=43	=43	=43	=43
1i	F:min	8c	ne-	1r	.	.	76.672	.	voice
.	.	4A-	-ver	.	.	.	.	.	.
.	.	16A-	run-	.	.	.	.	.	.
.	.	16A-	-a-	.	.	.	.	.	.
.	.	8A-	-way	.	.	.	.	.	.
.	.	4B-	from	.	.	.	.	.	.
.	.	8F	you	.	.	C	.	.	.
=44	=44	=44	=44	=44	=44	=44	=44	=44	=44
2i	F:minmaj7	4A-	_	1r	.	.	78.475	.	voice
.	.	4r	.	.	.	.	.	.	.
2i7	F:min7	8r	.	.	.	.	79.377	.	voice
.	.	8A-	And	.	.	.	.	.	.
.	.	8c	if	.	.	.	.	.	.
.	.	8B-	you	.	.	.	.	.	.
=45	=45	=45	=45	=45	=45	=45	=45	=45	=45
1-VI	D-:maj	4B-	keep	1r	.	.	80.279	newline	voice
.	.	4c	on	.	.	.	.	.	.
.	.	8B-	run-	.	.	.	.	.	.
.	.	8A-	-nin'	.	.	.	.	.	.
.	.	4r	.	.	.	.	.	.	.
=46	=46	=46	=46	=46	=46	=46	=46	=46	=46
1-VI	D-:maj	8r	.	1r	.	.	82.085	.	voice
.	.	8c	you'll	.	.	.	.	.	.
.	.	8c	have	.	.	.	.	.	.
.	.	8c	to	.	.	.	.	.	.
.	.	8B-	pay	.	.	.	.	.	.
.	.	4A-	the	.	.	.	.	.	.
.	.	[8c	price	.	.	A	.	.	.
=47	=47	=47	=47	=47	=47	=47	=47	=47	=47
1V7	C:7	2.c]	_	1r	.	.	83.892	.	voice
.	.	4r	.	.	.	.	.	.	.
=48	=48	=48	=48	=48	=48	=48	=48	=48	=48
1V7	C:7	8r	.	1r	.	.	85.698	.	voice
.	.	8F	And	.	.	.	.	.	.
.	.	8c	don't	.	.	.	.	.	.
.	.	8B-	it	.	.	.	.	.	.
.	.	4c	seem	.	.	.	.	.	.
.	.	4c	like	.	.	A	.	.	.
=49	=49	=49	=49	=49	=49	=49	=49	=49	=49
*>Letter>C	*>Letter>C	*>Letter>C	*>Letter>C	*>Letter>C	*>Letter>C	*>Letter>C	*>Letter>C	*>Letter>C	*>Letter>C
*>Label>Chorus	*>Label>Chorus	*>Label>Chorus	*>Label>Chorus	*>Label>Chorus	*>Label>Chorus	*>Label>Chorus	*>Label>Chorus	*>Label>Chorus	*>Label>Chorus
1-III	A-:maj	4c	Kicks	4c	Kicks	.	87.505	newline	voice
.	.	4c	just	4c	just	.	.	.	.
.	.	4c	keep	4c	keep	.	.	.	.
.	.	8c	get-	8c	get-	.	.	.	.
.	.	8A-	-tin'	8A-	-tin'	.	.	.	.
=50	=50	=50	=50	=50	=50	=50	=50	=50	=50
1-VI	D-:maj	8B-	har-	8B-	har-	.	89.325	.	voice
.	.	8A-	-der	8A-	-der	.	.	.	.
.	.	8A-	to	8A-	to	.	.	.	.
.	.	8c	find	8c	find	A	.	.	.
.	.	8r	.	8r	.	.	.	.	.
.	.	8A-	and	8A-	and	.	.	.	.
.	.	8B-	all	8B-	all	.	.	.	.
.	.	8A-	your	8A-	your	.	.	.	.
=51	=51	=51	=51	=51	=51	=51	=51	=51	=51
1-III	A-:maj	4c	kicks	4c	kicks	.	91.145	.	voice
.	.	4c	ain't	4c	ain't	.	.	.	.
.	.	4c	bring-	4c	bring-	.	.	.	.
.	.	4c	-in'	4c	-in'	.	.	.	.
=52	=52	=52	=52	=52	=52	=52	=52	=52	=52
1-VI	D-:maj	8B-	you	8B-	you	.	92.966	.	voice
.	.	8A-	piece	8A-	piece	.	.	.	.
.	.	8A-	of	8A-	of	.	.	.	.
.	.	8c	mind	8c	mind	A	.	.	.
.	.	8r	.	8r	.	.	.	.	.
.	.	8A-	Be-	8A-	Be-	.	.	.	.
.	.	8B-	-fore	8B-	-fore	.	.	.	.
.	.	8A-	you	8A-	you	.	.	.	.
=53	=53	=53	=53	=53	=53	=53	=53	=53	=53
1-III	A-:maj	4c	find	4c	find	.	94.786	newline	voice
.	.	4c	out	4c	out	.	.	.	.
.	.	8c	it's	8c	it's	.	.	.	.
.	.	4c	too	4c	too	.	.	.	.
.	.	8c	late	8c	late	B	.	.	.
=54	=54	=54	=54	=54	=54	=54	=54	=54	=54
1-III	A-:maj	8r	.	8r	.	.	96.626	.	voice
.	.	4c	girl	4c	girl	.	.	.	.
.	.	8c	you	8c	you	.	.	.	.
.	.	8c	be-	8c	be-	.	.	.	.
.	.	8B-	-tter	8B-	-tter	.	.	.	.
.	.	4A-	get	4A-	get	.	.	.	.
=55	=55	=55	=55	=55	=55	=55	=55	=55	=55
1V7	C:7	[1c	straight	[1c	straight	B	98.466	.	voice
=56	=56	=56	=56	=56	=56	=56	=56	=56	=56
1V7	C:7	8c]	_	1c]	_	.	100.306	.	voice
.	.	4c	No	.	.	.	.	.	.
.	.	8A	you	.	.	.	.	.	.
.	.	4B-	don't	.	.	.	.	.	.
.	.	4A	need	.	.	.	.	.	.
=57	=57	=57	=57	=57	=57	=57	=57	=57	=57
*>Letter>D	*>Letter>D	*>Letter>D	*>Letter>D	*>Letter>D	*>Letter>D	*>Letter>D	*>Letter>D	*>Letter>D	*>Letter>D
*>Label>Bridge	*>Label>Bridge	*>Label>Bridge	*>Label>Bridge	*>Label>Bridge	*>Label>Bridge	*>Label>Bridge	*>Label>Bridge	*>Label>Bridge	*>Label>Bridge
1I	F:maj	2.F	kicks	1r	.	.	102.146	newline	voice
.	.	4r	.	.	.	.	.	.	.
=58	=58	=58	=58	=58	=58	=58	=58	=58	=58
1I	F:maj	4.r	.	1r	.	.	104.062	.	voice
.	.	8A-	To	.	.	.	.	.	.
.	.	4A-	help	.	.	.	.	.	.
.	.	4c	you	.	.	.	.	.	.
=59	=59	=59	=59	=59	=59	=59	=59	=59	=59
1vi	D:min	4d-	face	1r	.	.	105.979	.	voice
.	.	8r	.	.	.	.	.	.	.
.	.	8A-	the	.	.	.	.	.	.
.	.	8A-	world	.	.	.	.	.	.
.	.	4G	each	.	.	.	.	.	.
.	.	[8F	day	.	.	C	.	.	.
=60	=60	=60	=60	=60	=60	=60	=60	=60	=60
1vi	D:min	8F]	_	1r	.	.	107.895	.	voice
.	.	8r	.	.	.	.	.	.	.
.	.	4r	.	.	.	.	.	.	.
.	.	4G	That	.	.	.	.	.	.
.	.	8A-	road	.	.	.	.	.	.
.	.	8G	_	.	.	.	.	.	.
=61	=61	=61	=61	=61	=61	=61	=61	=61	=61
1IV	B-:maj	4F	goes	1r	.	.	109.811	newline	voice
.	.	8G	no-	.	.	.	.	.	.
.	.	4.F	-where	.	.	.	.	.	.
.	.	4r	.	.	.	.	.	.	.
=62	=62	=62	=62	=62	=62	=62	=62	=62	=62
1IV	B-:maj	4.r	.	1r	.	.	111.698	.	voice
.	.	4F	I'm	.	.	.	.	.	.
.	.	8A-	gon-	.	.	.	.	.	.
.	.	4c	-na	.	.	.	.	.	.
=63	=63	=63	=63	=63	=63	=63	=63	=63	=63
1V	C:maj	8c	help	1r	.	.	113.584	.	voice
.	.	4c	you	.	.	.	.	.	.
.	.	4c	find	.	.	.	.	.	.
.	.	4c	your-	.	.	.	.	.	.
.	.	8c	-self	.	.	.	.	.	.
=64	=64	=64	=64	=64	=64	=64	=64	=64	=64
1V	C:maj	4f	_	1r	.	.	115.47	.	voice
.	.	8r	.	.	.	.	.	.	.
.	.	8c	a-	.	.	.	.	.	.
.	.	8c	-no-	.	.	.	.	.	.
.	.	4d-	-ther	.	.	.	.	.	.
.	.	8d-	way	.	.	C	.	.	.
=65	=65	=65	=65	=65	=65	=65	=65	=65	=65
*>Letter>C	*>Letter>C	*>Letter>C	*>Letter>C	*>Letter>C	*>Letter>C	*>Letter>C	*>Letter>C	*>Letter>C	*>Letter>C
*>Label>Chorus	*>Label>Chorus	*>Label>Chorus	*>Label>Chorus	*>Label>Chorus	*>Label>Chorus	*>Label>Chorus	*>Label>Chorus	*>Label>Chorus	*>Label>Chorus
1-III	A-:maj	4c	_	4c	Kicks	.	117.356	newline	voice
.	.	4r	.	4c	just	.	.	.	.
.	.	2r	.	4c	keep	.	.	.	.
.	.	.	.	8c	get-	.	.	.	.
.	.	.	.	8A-	-tin'	.	.	.	.
=66	=66	=66	=66	=66	=66	=66	=66	=66	=66
1-VI	D-:maj	8r	.	8B-	har-	.	119.193	.	voice
.	.	4f	Oh	8A-	-der	.	.	.	.
.	.	.	.	8A-	to	.	.	.	.
.	.	8e-	you	8c	find	A	.	.	.
.	.	8f	don't	8r	.	.	.	.	.
.	.	8f	need	8A-	and	.	.	.	.
.	.	8e-	_	8B-	all	.	.	.	.
.	.	8e-	kicks	8A-	your	.	.	.	.
=67	=67	=67	=67	=67	=67	=67	=67	=67	=67
1-III	A-:maj	8r	.	4c	kicks	.	121.03	.	voice
.	.	8e-	girl	.	.	.	.	.	.
.	.	8c	_	4c	ain't	.	.	.	.
.	.	4.e-	_	.	.	.	.	.	.
.	.	.	.	4c	bring-	.	.	.	.
.	.	4r	.	4c	-in'	.	.	.	.
=68	=68	=68	=68	=68	=68	=68	=68	=68	=68
1-VI	D-:maj	2r	.	8B-	you	.	122.868	.	voice
.	.	.	.	8A-	piece	.	.	.	.
.	.	.	.	8A-	of	.	.	.	.
.	.	.	.	8c	mind	A	.	.	.
.	.	8f	Just	8r	.	.	.	.	.
.	.	4f	need	8A-	Be-	.	.	.	.
.	.	.	.	8B-	-fore	.	.	.	.
.	.	8e-	help	8A-	you	.	.	.	.
=69	=69	=69	=69	=69	=69	=69	=69	=69	=69
1-III	A-:maj	8r	.	4c	find	A	124.705	newline	voice
.	.	4e-	girl	.	.	.	.	.	.
.	.	.	.	4c	out	.	.	.	.
.	.	8c	_	.	.	.	.	.	.
.	.	16e-	_	8c	it's	.	.	.	.
.	.	16d-	_	.	.	.	.	.	.
.	.	4.c	_	4c	too	.	.	.	.
.	.	.	.	8c	late	B	.	.	.
=70	=70	=70	=70	=70	=70	=70	=70	=70	=70
1-III	A-:maj	8r	.	8r	.	.	126.54	.	voice
.	.	4c	girl	4c	girl	.	.	.	.
.	.	8c	you	8c	you	.	.	.	.
.	.	8c	be-	8c	be-	.	.	.	.
.	.	8B-	-tter	8B-	-tter	.	.	.	.
.	.	4A-	get	4A-	get	.	.	.	.
=71	=71	=71	=71	=71	=71	=71	=71	=71	=71
1V7	C:7	[1c	straight	[1c	straight	B	128.374	.	voice
=72	=72	=72	=72	=72	=72	=72	=72	=72	=72
1V7	C:7	4c]	_	1c]	_	.	130.209	.	voice
.	.	8c	don't	.	.	.	.	.	.
.	.	8B-	it	.	.	.	.	.	.
.	.	4c	seem	.	.	.	.	.	.
.	.	4c	like	.	.	A	.	.	.
=73	=73	=73	=73	=73	=73	=73	=73	=73	=73
*>Letter>C	*>Letter>C	*>Letter>C	*>Letter>C	*>Letter>C	*>Letter>C	*>Letter>C	*>Letter>C	*>Letter>C	*>Letter>C
*>Label>Fadeout	*>Label>Fadeout	*>Label>Fadeout	*>Label>Fadeout	*>Label>Fadeout	*>Label>Fadeout	*>Label>Fadeout	*>Label>Fadeout	*>Label>Fadeout	*>Label>Fadeout
1-III	A-:maj	1r	.	4c	Kicks	.	132.044	newline	voice
.	.	.	.	4c	just	.	.	.	.
.	.	.	.	4c	keep	.	.	.	.
.	.	.	.	8c	get-	.	.	.	.
.	.	.	.	8A-	-tin'	.	.	.	.
=74	=74	=74	=74	=74	=74	=74	=74	=74	=74
1-VI	D-:maj	8r	.	8B-	har-	.	133.864	.	voice
.	.	4f	Oh	8A-	-der	.	.	.	.
.	.	.	.	8A-	to	.	.	.	.
.	.	8e-	you	8c	find	A	.	.	.
.	.	8f	don't	8r	.	.	.	.	.
.	.	4e-	need	8A-	and	.	.	.	.
.	.	.	.	8B-	all	.	.	.	.
.	.	8e-	kicks	8A-	your	.	.	.	.
=75	=75	=75	=75	=75	=75	=75	=75	=75	=75
1-III	A-:maj	8r	.	4c	kicks	.	135.685	.	voice
.	.	4e-	girl	.	.	.	.	.	.
.	.	.	.	4c	ain't	.	.	.	.
.	.	8c	_	.	.	.	.	.	.
.	.	16e-	_	4c	bring-	.	.	.	.
.	.	16d-	_	.	.	.	.	.	.
.	.	4.c	_	.	.	.	.	.	.
.	.	.	.	4c	-in'	.	.	.	.
=76	=76	=76	=76	=76	=76	=76	=76	=76	=76
1-VI	D-:maj	8r	.	8B-	you	.	137.506	.	voice
.	.	4f	Oh	8A-	piece	.	.	.	.
.	.	.	.	8A-	of	.	.	.	.
.	.	8e-	you	8c	mind	A	.	.	.
.	.	8f	just	8r	.	.	.	.	.
.	.	4e-	need	8A-	Be-	.	.	.	.
.	.	.	.	8B-	-fore	.	.	.	.
.	.	8e-	help	8A-	you	.	.	.	.
=77	=77	=77	=77	=77	=77	=77	=77	=77	=77
1-III	A-:maj	1r	.	4c	find	A	139.326	newline	voice
.	.	.	.	4c	out	.	.	.	.
.	.	.	.	8c	it's	.	.	.	.
.	.	.	.	4c	too	.	.	.	.
.	.	.	.	8c	late	B	.	.	.
=78	=78	=78	=78	=78	=78	=78	=78	=78	=78
1-III	A-:maj	1r	.	8r	.	.	140.886	.	voice
.	.	.	.	4c	girl	.	.	.	.
.	.	.	.	8c	you	.	.	.	.
.	.	.	.	8c	be-	.	.	.	.
.	.	.	.	8B-	-tter	.	.	.	.
.	.	.	.	4A-	get	.	.	.	.
=79	=79	=79	=79	=79	=79	=79	=79	=79	=79
1V7	C:7	1r	.	[1c	straight	B	142.446	.	voice
=80	=80	=80	=80	=80	=80	=80	=80	=80	=80
1V7	C:7	1r	.	1c]	_	.	144.006	.	voice
1r;	N	r;	.	r;	.	.	145.566	.	r
1r;	N	r;	.	r;	.	.	149.316	.	r
*-	*-	*-	*-	*-	*-	*-	*-	*-	*-
!!!BillboardChartDate: 1966/06/04
!!!BillboardPeak: 4
!!!BillboardWeeksOnChart: 14
!!!COC: Paul Revere & The Raiders
!!!ENC: Nathaniel Condit-Schultz
!!!EST: Awating manual error checking and editing.
!!!OTL: Kicks
!!!RDF**harte: Chris Harte's syntax, used by MIREX
!!!RDF**harmony: **recip + pitch class of root + harmonic quality
!!!RDF**leadinstrument: original McGill primary instrumentation annotation
!!!RDF**phrase: newline = linebreak in original McGill transcription
!!!RDF**timestamp: McGill audio timestamp in seconds
!!!RDT: 2017/01/12/
!!!SampleActualRank: 14
!!!SampleID#: 1181
!!!SampleTargetRank: 14
!!!MBID: daf3db61-0da0-4c6f-b588-326fe3cd415d
